src/assets/icons/bath.svg

<svg width="19" height="19" viewBox="0 0 19 19" fill="none" xmlns="http://www.w3.org/2000/svg">
<path d="M18.7619 11.0558C18.7619 10.7426 18.5079 10.4886 18.1947 10.4886H17.0595V2.75501C17.0595 1.23589 15.8236 0 14.3045 0C12.7853 0 11.5494 1.23589 11.5494 2.75501V3.78902C11.5494 4.10226 11.8034 4.35624 12.1167 4.35624C12.4299 4.35624 12.6839 4.10226 12.6839 3.78902V2.75501C12.6839 1.86141 13.4109 1.13444 14.3045 1.13444C15.198 1.13444 15.925 1.86141 15.925 2.75501V10.4886H0.805255C0.492014 10.4886 0.238037 10.7426 0.238037 11.0558C0.238037 13.6158 1.85716 15.8044 4.12503 16.6522C3.68877 17.1108 3.41895 17.7397 3.41895 18.4328C3.41895 18.746 3.67293 19 3.98617 19C4.29941 19 4.55338 18.746 4.55338 18.4328C4.55338 17.6583 5.14435 17.0282 5.87081 17.0282C5.89749 17.0282 13.1025 17.0282 13.1292 17.0282C13.8556 17.0282 14.4467 17.6583 14.4467 18.4328C14.4467 18.746 14.7006 19 15.0139 19C15.3271 19 15.5811 18.746 15.5811 18.4328C15.5811 17.7397 15.3112 17.1108 14.875 16.6522C17.1428 15.8044 18.7619 13.6158 18.7619 11.0558ZM12.7896 15.8938H6.21043C3.73456 15.8938 1.68716 14.0245 1.40554 11.6231H17.5945C17.3128 14.0245 15.2654 15.8938 12.7896 15.8938Z" fill="#696969"/>
<path d="M12.1167 5.34045C11.8034 5.34045 11.5495 5.59443 11.5495 5.90767V6.39926C11.5495 6.7125 11.8034 6.96648 12.1167 6.96648C12.4299 6.96648 12.6839 6.7125 12.6839 6.39926V5.90767C12.6839 5.59439 12.4299 5.34045 12.1167 5.34045Z" fill="#696969"/>
<path d="M12.1167 8.06311C11.8034 8.06311 11.5495 8.31709 11.5495 8.63033V9.12192C11.5495 9.43516 11.8034 9.68913 12.1167 9.68913C12.4299 9.68913 12.6839 9.43516 12.6839 9.12192V8.63033C12.6839 8.31705 12.4299 8.06311 12.1167 8.06311Z" fill="#696969"/>
</svg>

<svg xmlns="http://www.w3.org/2000/svg" width="19" height="19" fill="none"><path fill="#696969" d="M18.762 11.056a.567.567 0 0 0-.567-.567h-1.136V2.755A2.758 2.758 0 0 0 14.305 0a2.758 2.758 0 0 0-2.755 2.755v1.034a.567.567 0 0 0 1.135 0V2.755c0-.894.727-1.62 1.62-1.62.894 0 1.621.726 1.621 1.62v7.734H.805a.567.567 0 0 0-.567.567c0 2.56 1.62 4.748 3.887 5.596a2.577 2.577 0 0 0-.706 1.78.567.567 0 0 0 1.134 0c0-.774.591-1.404 1.318-1.404h7.258c.727 0 1.318.63 1.318 1.405a.567.567 0 0 0 1.134 0c0-.693-.27-1.322-.706-1.78a5.982 5.982 0 0 0 3.887-5.597Zm-5.972 4.838H6.21a4.845 4.845 0 0 1-4.804-4.27h16.189a4.845 4.845 0 0 1-4.805 4.27Z"/><path fill="#696969" d="M12.117 5.34a.567.567 0 0 0-.568.568v.491a.567.567 0 1 0 1.135 0v-.491a.567.567 0 0 0-.567-.568ZM12.117 8.063a.567.567 0 0 0-.568.567v.492a.567.567 0 1 0 1.135 0V8.63a.567.567 0 0 0-.567-.567Z"/></svg>
